!!!OTL: SCHAUST SO FREUNDLICH AUS
!!!ARE: Europa, Mitteleuropa, Deutschland
!!!SCT: F0962
!!!YEM: Copyright 1995, estate of Helmut Schaffrath.
**kern
*ICvox
*Ivox
*M3/4
*k[b-e-]
*B-:
{8f
8b-
=1
8dd
8cc
4b-
8g
8b-
=2
4.f
8r}
{8f
8b-
=3
8dd
8cc
4b-
8g
8b-
=4
4.f
8r}
{8f
8b-
=5
8a
8cc
4f
8en
8f
=6
4g
8f
8r}
{8f
8g
=7
8a
16a
16dd
4a
8a
8a
=8
2a}
{8a
8a
=9
8.cc
16b-
4f
8bn
8bn
=10
8.dd
16cc
4cc}
{8g
8cc
=11
2f
8g
8a
=12
4b-
4r}
{8.f
16g
=13
8.f
16dd
4dd
4dd
=14
8dd
8ff
8ee-
8bn
4cc}
=15
{8.a
16gg
4gg
4a
=16
4dd
4B-}
==
!!!AGN: Liebes - Lied
!!!ONB: ESAC (Essen Associative Code) Database: FINK
!!!AMT: simple triple
!!!AIN: vox
!!!EED: Helmut Schaffrath
!!!EEV: 1.0
*-
